X: 1068
T: Drink and Be Merry
R:double jig
N:"collected by J.O'Neill"
B:O'Neill's 1068
Z:Transcribed by henrik.norbeck@mailbox.swipnet.se
M:6/8
L:1/8
K:G
d|cAG F2G|FDE F2D|DGG FGA|BBc ded|
cAG FED|GAG gfe|dBG AFD|DGG G2:|
(F/G/)|A>BA fef|gag fed|^cAG FGA|ded ^cAG|
ABA fef|gag fed|^cAG F2E|D2D D2:|


